source/img/sprite/arrow.svg

<svg width="14" height="8" viewBox="0 0 14 8" fill="none" xmlns="http://www.w3.org/2000/svg">
<path d="M13.3536 4.35355C13.5488 4.15829 13.5488 3.84171 13.3536 3.64645L10.1716 0.464466C9.97631 0.269204 9.65973 0.269204 9.46447 0.464466C9.26921 0.659728 9.26921 0.976311 9.46447 1.17157L12.2929 4L9.46447 6.82843C9.26921 7.02369 9.26921 7.34027 9.46447 7.53553C9.65973 7.7308 9.97631 7.7308 10.1716 7.53553L13.3536 4.35355ZM0 4.5H13V3.5H0V4.5Z" fill="white"/>
</svg>

<svg viewBox="0 0 14 8" fill="none" xmlns="http://www.w3.org/2000/svg"><path d="M13.35 4.35a.5.5 0 0 0 0-.7l-3.18-3.19a.5.5 0 0 0-.7.71l2.82 2.83-2.83 2.83a.5.5 0 1 0 .71.7l3.18-3.18Zm-13.35.15h13v-1h-13v1Z" fill="#fff"/></svg>
